;FLAVOR:Marlin
;TIME:2455
;Filament used: 0.788022m
;Layer height: 0.16
;MINX:101
;MINY:101.188
;MINZ:0.2
;MAXX:119
;MAXY:119.225
;MAXZ:52.64
;Generated with Cura_SteamEngine 5.3.1
M140 S50
M105
M190 S50
M104 S200
M105
M109 S200
M82 ;absolute extrusion mode
; Script based on an original created by tjjfvi (https://github.com/tjjfvi)
; An up-to-date version of the tjjfvi's original script can be found
; here:  https://csi.t6.fyi/
; Note - This script will not work in Cura V4.2 and above!
; max_feedrate_z_override = {max_feedrate_z_override}
; retraction_amount = 5
; retraction_hop = 0.2
; retraction_hop_enabled = False
; retraction_prime_speed = 45
; retraction_retract_speed = 45
; retraction_speed = 45
; speed_travel = 150.0
; retraction_enable = True
; layer_height = 0.16
; smooth_spiralized_contours = True

; Ender 3 Custom Start G-code
G92 E0 ; Reset Extruder
G28 ; Home all axes
M420 S1; Enable the Mesh
G1 Z2.0 F3000 ; Move Z Axis up little to prevent scratching of Heat Bed
G1 X0.1 Y20 Z0.3 F5000.0 ; Move to start position
G1 X0.1 Y200.0 Z0.3 F1500.0 E15 ; Draw the first line
G1 X0.4 Y200.0 Z0.3 F5000.0 ; Move to side a little
G1 X0.4 Y20 Z0.3 F1500.0 E30 ; Draw the second line
G92 E0 ; Reset Extruder
G1 Z2.0 F3000 ; Move Z Axis up little to prevent scratching of Heat Bed
G1 X5 Y20 Z0.3 F5000.0 ; Move over to prevent blob squish
G92 E0
G92 E0
G1 F2700 E-5
;LAYER_COUNT:294
;LAYER:0
M107
G0 F6000 X102.17 Y104.9 Z0.2
;TYPE:SKIRT
G1 F2700 E0
G1 F1200 X103.226 Y104 E0.04615
G1 X108.44 Y101.395 E0.24001
G1 X110.247 Y101.188 E0.3005
G1 X110.752 Y101.255 E0.31744
G1 X111.894 Y101.564 E0.35679
G1 X116.71 Y103.976 E0.53594
G1 X117.705 Y104.826 E0.57947
G1 X118.582 Y106.063 E0.6299
G1 X118.683 Y106.302 E0.63853
G1 X119 Y107.616 E0.68349
G1 X119 Y112.75 E0.85424
G1 X118.659 Y114.119 E0.90117
G1 X118.047 Y115.172 E0.94168
G1 X117.619 Y115.726 E0.96496
G1 X116.637 Y116.484 E1.00622
G1 X111.566 Y119.026 E1.19489
G1 X109.829 Y119.225 E1.25304
G1 X109.308 Y119.185 E1.27042
G1 X108.104 Y118.856 E1.31193
G1 X103.29 Y116.445 E1.491
G1 X102.295 Y115.595 E1.53453
G1 X101.418 Y114.358 E1.58496
G1 X101.317 Y114.119 E1.59359
G1 X101 Y112.805 E1.63855
G1 X101 Y107.672 E1.80928
G1 X101.32 Y106.393 E1.85313
G1 X101.96 Y105.19 E1.89845
G1 X102.17 Y104.9 E1.91036
G0 F6000 X102.466 Y105.173
G1 F1200 X103.448 Y104.337 E1.95325
G1 X108.557 Y101.784 E2.14321
G1 X110.24 Y101.591 E2.19956
G1 X110.699 Y101.652 E2.21496
G1 X111.75 Y101.939 E2.25119
G1 X116.488 Y104.313 E2.42745
G1 X117.409 Y105.099 E2.46773
G1 X118.231 Y106.259 E2.51501
G1 X118.294 Y106.396 E2.52003
G1 X118.6 Y107.664 E2.56341
G1 X118.6 Y112.701 E2.73094
G1 X118.284 Y113.968 E2.77437
G1 X117.73 Y114.927 E2.81121
G1 X117.332 Y115.442 E2.83286
G1 X116.424 Y116.143 E2.87101
G1 X111.448 Y118.637 E3.05614
G1 X109.824 Y118.823 E3.11051
G1 X109.376 Y118.789 E3.12545
G1 X108.249 Y118.481 E3.16431
G1 X103.512 Y116.109 E3.34051
G1 X102.591 Y115.322 E3.3808
G1 X101.769 Y114.162 E3.42809
G1 X101.706 Y114.025 E3.43311
G1 X101.4 Y112.757 E3.47649
G1 X101.4 Y107.721 E3.64399
G1 X101.696 Y106.538 E3.68455
G1 X102.313 Y105.378 E3.72825
G1 X102.466 Y105.173 E3.73676
G0 F6000 X102.76 Y105.449
G1 F1200 X103.67 Y104.674 E3.77651
G1 X108.674 Y102.173 E3.96257
G1 X110.235 Y101.994 E4.01483
G1 X110.593 Y102.038 E4.02683
G1 X111.606 Y102.315 E4.06176
G1 X116.266 Y104.649 E4.23511
G1 X117.113 Y105.372 E4.27215
G1 X117.905 Y106.49 E4.31772
G1 X118.2 Y107.712 E4.35953
G1 X118.2 Y112.652 E4.52383
G1 X117.91 Y113.816 E4.56373
G1 X117.413 Y114.683 E4.59697
G1 X117.047 Y115.157 E4.61689
G1 X116.211 Y115.802 E4.65201
G1 X111.33 Y118.248 E4.83359
G1 X109.819 Y118.421 E4.88418
G1 X109.444 Y118.393 E4.89668
G1 X108.394 Y118.106 E4.93289
G1 X103.734 Y115.772 E5.10623
G1 X102.887 Y115.049 E5.14327
G1 X102.095 Y113.931 E5.18884
G1 X101.8 Y112.709 E5.23065
G1 X101.8 Y107.77 E5.39493
G1 X102.072 Y106.683 E5.43219
G1 X102.666 Y105.566 E5.47427
G1 X102.76 Y105.449 E5.47926
G0 F6000 X103.019 Y105.754
G1 F1200 X103.892 Y105.011 E5.51739
G1 X108.791 Y102.562 E5.69956
G1 X110.231 Y102.397 E5.74777
G1 X110.488 Y102.424 E5.75636
G1 X111.461 Y102.69 E5.78991
G1 X116.044 Y104.985 E5.96039
G1 X116.817 Y105.645 E5.99419
G1 X117.534 Y106.657 E6.03545
G1 X117.8 Y107.76 E6.07318
G1 X117.8 Y112.603 E6.23426
G1 X117.536 Y113.664 E6.27063
G1 X117.096 Y114.438 E6.30024
G1 X116.76 Y114.873 E6.31852
G1 X115.998 Y115.461 E6.35053
G1 X111.212 Y117.859 E6.52858
G1 X109.814 Y118.019 E6.57538
G1 X109.512 Y117.997 E6.58545
G1 X108.539 Y117.731 E6.619
G1 X103.956 Y115.436 E6.78948
G1 X103.183 Y114.776 E6.82328
G1 X102.466 Y113.764 E6.86453
G1 X102.2 Y112.661 E6.90227
G1 X102.2 Y107.819 E7.06332
G1 X102.448 Y106.828 E7.0973
G1 X103.019 Y105.754 E7.13775
G0 F6000 X103.336 Y106.01
G1 F1200 X104.114 Y105.348 E7.17173
G1 X108.908 Y102.951 E7.35
G1 X110.232 Y102.799 E7.39432
G1 X110.383 Y102.81 E7.39936
G1 X111.316 Y103.065 E7.43153
G1 X115.822 Y105.321 E7.59913
G1 X116.521 Y105.918 E7.62971
G1 X117.163 Y106.824 E7.66664
G1 X117.4 Y107.808 E7.7003
G1 X117.4 Y112.554 E7.85816
G1 X117.161 Y113.513 E7.89103
G1 X116.779 Y114.193 E7.91697
G1 X116.473 Y114.589 E7.93361
G1 X115.785 Y115.12 E7.96252
G1 X111.094 Y117.47 E8.13703
G1 X109.768 Y117.622 E8.18142
G1 X109.617 Y117.611 E8.18645
G1 X108.684 Y117.356 E8.21862
G1 X104.178 Y115.1 E8.38623
G1 X103.479 Y114.503 E8.4168
G1 X102.837 Y113.597 E8.45373
G1 X102.6 Y112.613 E8.4874
G1 X102.6 Y107.868 E8.64522
G1 X102.824 Y106.973 E8.6759
G1 X103.336 Y106.01 E8.71218
G0 F6000 X103.653 Y106.266
G1 F1200 X104.336 Y105.685 E8.742
G1 X109.025 Y103.34 E8.91638
G1 X110.278 Y103.196 E8.95832
G1 X111.171 Y103.44 E8.98911
G1 X115.6 Y105.657 E9.15385
G1 X116.225 Y106.191 E9.18119
G1 X116.792 Y106.991 E9.2138
G1 X117 Y107.856 E9.24339
G1 X117 Y112.505 E9.39802
G1 X116.786 Y113.363 E9.42743
G1 X116.43 Y113.997 E9.45162
G1 X116.19 Y114.302 E9.46452
G1 X115.572 Y114.779 E9.49049
G1 X110.976 Y117.081 E9.66146
G1 X109.722 Y117.225 E9.70344
G1 X108.829 Y116.981 E9.73423
G1 X104.4 Y114.764 E9.89896
G1 X103.775 Y114.23 E9.9263
G1 X103.208 Y113.43 E9.95892
G1 X103 Y112.565 E9.98851
G1 X103 Y107.917 E10.1431
G1 X103.2 Y107.118 E10.17049
G1 X103.653 Y106.266 E10.20259
G0 F6000 X103.97 Y106.522
G1 F1200 X104.558 Y106.022 E10.22826
G1 X109.142 Y103.729 E10.39874
G1 X110.246 Y103.602 E10.4357
G1 X111.026 Y103.815 E10.46259
G1 X115.378 Y105.993 E10.62445
G1 X115.929 Y106.464 E10.64856
G1 X116.421 Y107.158 E10.67686
G1 X116.6 Y107.903 E10.70234
G1 X116.6 Y112.456 E10.85377
G1 X116.411 Y113.213 E10.87973
G1 X116.081 Y113.801 E10.90215
G1 X115.908 Y114.014 E10.91128
G1 X115.359 Y114.438 E10.93435
G1 X110.858 Y116.692 E11.10178
G1 X109.754 Y116.819 E11.13874
G1 X108.974 Y116.606 E11.16563
G1 X104.622 Y114.428 E11.32749
G1 X104.071 Y113.957 E11.3516
G1 X103.579 Y113.263 E11.3799
G1 X103.4 Y112.518 E11.40538
G1 X103.4 Y107.966 E11.55678
G1 X103.576 Y107.263 E11.58088
G1 X103.97 Y106.522 E11.6088
G0 F6000 X104.287 Y106.778
G1 F1200 X104.78 Y106.359 E11.63032
G1 X109.26 Y104.118 E11.79693
G1 X110.214 Y104.008 E11.82887
G1 X110.881 Y104.19 E11.85186
G1 X115.156 Y106.329 E12.01085
G1 X115.633 Y106.737 E12.03173
G1 X116.05 Y107.325 E12.05571
G1 X116.2 Y107.95 E12.07708
G1 X116.2 Y112.407 E12.22532
G1 X116.036 Y113.063 E12.24781
G1 X115.732 Y113.605 E12.26848
G1 X115.628 Y113.725 E12.27377
G1 X115.146 Y114.097 E12.29402
G1 X110.74 Y116.303 E12.4579
G1 X109.786 Y116.413 E12.48984
G1 X109.119 Y116.231 E12.51284
G1 X104.844 Y114.092 E12.67183
G1 X104.367 Y113.684 E12.69271
G1 X103.95 Y113.096 E12.71668
G1 X103.8 Y112.471 E12.73806
G1 X103.8 Y108.015 E12.88627
G1 X103.952 Y107.408 E12.90708
G1 X104.287 Y106.778 E12.93081
G0 F6000 X104.604 Y107.034
G1 F1200 X105.002 Y106.696 E12.94818
G1 X109.378 Y104.507 E13.11092
G1 X110.182 Y104.414 E13.13784
G1 X110.736 Y104.565 E13.15694
G1 X114.934 Y106.666 E13.31307
G1 X115.337 Y107.01 E13.3307
G1 X115.679 Y107.492 E13.35035
G1 X115.8 Y107.997 E13.36763
G1 X115.8 Y112.358 E13.51267
G1 X115.661 Y112.913 E13.5317
G1 X115.383 Y113.409 E13.55061
G1 X114.934 Y113.756 E13.56949
G1 X110.622 Y115.914 E13.72986
G1 X109.818 Y116.007 E13.75678
G1 X109.264 Y115.856 E13.77588
G1 X105.066 Y113.755 E13.93202
G1 X104.663 Y113.411 E13.94964
G1 X104.321 Y112.929 E13.9693
G1 X104.2 Y112.424 E13.98657
G1 X104.2 Y108.064 E14.13158
G1 X104.328 Y107.553 E14.1491
G1 X104.604 Y107.034 E14.16866
G0 F6000 X104.921 Y107.29
G1 F1200 X105.224 Y107.033 E14.18187
G1 X109.496 Y104.896 E14.34074
G1 X110.15 Y104.82 E14.36264
G1 X110.591 Y104.94 E14.37784
G1 X114.712 Y107.002 E14.53111
G1 X115.039 Y107.282 E14.54543
G1 X115.308 Y107.661 E14.56089
G1 X115.4 Y108.044 E14.57399
G1 X115.4 Y112.309 E14.71584
G1 X115.286 Y112.763 E14.73141
G1 X115.073 Y113.143 E14.7459
G1 X114.722 Y113.415 E14.76067
G1 X110.504 Y115.525 E14.91753
G1 X109.85 Y115.601 E14.93943
G1 X109.409 Y115.481 E14.95463
G1 X105.288 Y113.419 E15.1079
G1 X104.961 Y113.139 E15.12222
G1 X104.692 Y112.76 E15.13768
G1 X104.6 Y112.377 E15.15078
G1 X104.6 Y108.113 E15.2926
G1 X104.704 Y107.698 E15.30683
G1 X104.921 Y107.29 E15.3222
G0 F6000 X105.239 Y107.544
G1 F1200 X105.403 Y107.391 E15.32966
G1 X109.614 Y105.285 E15.48625
G1 X110.118 Y105.226 E15.50313
G1 X110.447 Y105.316 E15.51448
G1 X114.49 Y107.338 E15.66483
G1 X114.743 Y107.555 E15.67591
G1 X114.938 Y107.83 E15.68713
G1 X115 Y108.044 E15.69454
G1 X115 Y112.26 E15.83476
G1 X114.898 Y112.666 E15.84868
G1 X114.765 Y112.876 E15.85695
G1 X114.51 Y113.074 E15.86769
G1 X110.386 Y115.136 E16.02104
G1 X109.882 Y115.195 E16.03792
G1 X109.553 Y115.105 E16.04927
G1 X105.51 Y113.083 E16.19962
G1 X105.257 Y112.866 E16.2107
G1 X105.062 Y112.591 E16.22192
G1 X105 Y112.377 E16.22933
G1 X105 Y108.162 E16.36952
G1 X105.08 Y107.843 E16.38046
G1 X105.239 Y107.544 E16.39172
G0 F6000 X105.582 Y107.749
G1 F1200 X109.732 Y105.674 E16.54604
G1 X110.089 Y105.632 E16.558
G1 X110.268 Y105.674 E16.56411
G1 X114.268 Y107.674 E16.71286
G1 X114.482 Y107.858 E16.72224
G1 X114.6 Y108.044 E16.72957
G1 X114.6 Y112.21 E16.86813
G1 X114.51 Y112.568 E16.88041
G1 X114.331 Y112.716 E16.88813
G1 X110.268 Y114.747 E17.03921
G1 X109.911 Y114.789 E17.05117
G1 X109.732 Y114.747 E17.05728
G1 X105.732 Y112.747 E17.20603
G1 X105.518 Y112.563 E17.21541
G1 X105.4 Y112.377 E17.22274
G1 X105.4 Y108.211 E17.3613
G1 X105.468 Y107.94 E17.3706
G1 X105.582 Y107.749 E17.37799
G0 F6000 X105.848 Y108.063
G1 F1200 X109.911 Y106.032 E17.52907
G1 X110.089 Y106.032 E17.53499
G1 X114.089 Y108.032 E17.68374
G1 X114.2 Y108.142 E17.68893
G1 X114.2 Y112.21 E17.82424
G1 X114.152 Y112.358 E17.82941
G1 X110.089 Y114.389 E17.98049
G1 X109.911 Y114.389 E17.98641
G1 X105.911 Y112.389 E18.13516
G1 X105.8 Y112.279 E18.14035
G1 X105.8 Y108.211 E18.27565
G1 X105.848 Y108.063 E18.28083
G1 F2700 E13.28083
;MESH:RC Post Driver (8).stl
G0 F6000 X106.417 Y108.468
G0 X110 Y113.471
;TYPE:WALL-INNER
G1 F2700 E18.28083
G1 F973.6 X110.159 Y113.422 E18.28765
G1 F1021.3 X112.981 Y112.011 E18.41095
G1 F866.4 X113.296 Y111.745 E18.42995
G1 F765.6 X113.301 Y108.667 E18.59042
G1 F926.6 X112.874 Y108.327 E18.61393
G1 F1156.6 X110.247 Y107.014 E18.71527
G1 F1086 X110 Y106.922 E18.72496
G1 F1111.1 X109.708 Y107.024 E18.73607
G1 F1203 X106.99 Y108.387 E18.83695
G1 F983.6 X106.674 Y108.657 E18.85381
G1 F827.6 X106.679 Y111.758 E19.00336
G1 F935.7 X107.071 Y112.053 E19.02429
G1 F1081.1 X109.795 Y113.411 E19.13666
G1 F989.7 X110 Y113.471 E19.14528
G0 F6000 X110.034 Y113.005
;TYPE:WALL-OUTER
G1 F1200 X109.917 Y113.004 E19.14917
G1 X107.258 Y111.678 E19.24799
G1 X107.15 Y111.564 E19.25322
G1 X107.148 Y108.819 E19.34452
G1 X107.229 Y108.71 E19.34903
G1 X109.885 Y107.379 E19.44784
G1 X110.011 Y107.351 E19.45214
G1 X112.692 Y108.692 E19.55184
G1 X112.802 Y108.821 E19.55748
G1 X112.8 Y111.558 E19.64851
G1 X112.721 Y111.66 E19.6528
G1 X110.034 Y113.005 E19.75274
G0 F6000 X110 Y113.985
G1 F1200 X113.8 Y112.085 E19.89405
G1 X113.8 Y108.335 E20.01878
G1 X110 Y106.435 E20.16008
G1 X106.201 Y108.335 E20.30136
G1 X106.2 Y112.085 E20.42608
G1 X110 Y113.985 E20.56739
;MESH:NONMESH
G0 F300 X110 Y113.985 Z0.4
G0 F6000 X110 Y113.471
;TIME_ELAPSED:37.052134
;LAYER:1
M106 S85
;TYPE:WALL-INNER
;MESH:RC Post Driver (8).stl
G1 F486.8 X110.159 Y113.422 E20.57421
G1 F510.6 X112.981 Y112.011 E20.69751
G1 F433.2 X113.296 Y111.745 E20.71651
G1 F382.8 X113.301 Y108.667 E20.87698
G1 F463.3 X112.874 Y108.327 E20.90049
G1 F578.3 X110.247 Y107.014 E21.00183
G1 F543 X110 Y106.922 E21.01152
G1 F555.6 X109.708 Y107.024 E21.02263
G1 F601.5 X106.99 Y108.387 E21.12351
G1 F491.8 X106.674 Y108.657 E21.14037
G1 F413.8 X106.679 Y111.758 E21.28993
G1 F467.8 X107.071 Y112.053 E21.31085
G1 F540.5 X109.795 Y113.411 E21.42322
G1 F494.8 X110 Y113.471 E21.43184
G0 F7500 X110.034 Y113.005
;TYPE:WALL-OUTER
G1 F600 X109.917 Y113.004 E21.43573
G1 X107.258 Y111.678 E21.53456
G1 X107.15 Y111.564 E21.53978
G1 X107.148 Y108.819 E21.63108
G1 X107.229 Y108.71 E21.63559
G1 X109.885 Y107.379 E21.73441
G1 X110.011 Y107.351 E21.7387
G1 X112.692 Y108.692 E21.8384
G1 X112.802 Y108.821 E21.84404
G1 X112.8 Y111.558 E21.93507
G1 X112.721 Y111.66 E21.93936
G1 X110.034 Y113.005 E22.0393
G0 F7500 X110 Y113.985
G1 F600 X113.8 Y112.085 E22.18061
G1 X113.8 Y108.335 E22.30534
G1 X110 Y106.435 E22.44664
G1 X106.201 Y108.335 E22.58792
G1 X106.2 Y112.085 E22.71265
G1 X110 Y113.985 E22.85395
;MESH:NONMESH
G0 F300 X110 Y113.985 Z0.6
G0 F7500 X110 Y113.471
;TIME_ELAPSED:44.191996
;LAYER:2
M106 S170
;TYPE:WALL-INNER
;MESH:RC Post Driver (8).stl
G1 F486.8 X110.159 Y113.422 E22.86077
G1 F510.6 X112.981 Y112.011 E22.98408
G1 F433.2 X113.296 Y111.745 E23.00307
G1 F382.8 X113.301 Y108.667 E23.16354
G1 F463.3 X112.874 Y108.327 E23.18705
G1 F578.3 X110.247 Y107.014 E23.28839
G1 F543 X110 Y106.922 E23.29808
G1 F555.6 X109.708 Y107.024 E23.30919
G1 F601.5 X106.99 Y108.387 E23.41007
G1 F491.8 X106.674 Y108.657 E23.42694
G1 F413.8 X106.679 Y111.758 E23.57649
G1 F467.8 X107.071 Y112.053 E23.59741
G1 F540.5 X109.795 Y113.411 E23.70979
G1 F494.8 X110 Y113.471 E23.7184
G0 F9000 X110.034 Y113.005
;TYPE:WALL-OUTER
G1 F600 X109.917 Y113.004 E23.72229
G1 X107.258 Y111.678 E23.82112
G1 X107.15 Y111.564 E23.82634
G1 X107.148 Y108.819 E23.91764
G1 X107.229 Y108.71 E23.92216
G1 X109.885 Y107.379 E24.02097
G1 X110.011 Y107.351 E24.02526
G1 X112.692 Y108.692 E24.12496
G1 X112.802 Y108.821 E24.1306
G1 X112.8 Y111.558 E24.22163
G1 X112.721 Y111.66 E24.22593
G1 X110.034 Y113.005 E24.32587
G0 F9000 X110 Y113.985
G1 F600 X113.8 Y112.085 E24.46717
G1 X113.8 Y108.335 E24.5919
G1 X110 Y106.435 E24.7332
G1 X106.201 Y108.335 E24.87448
G1 X106.2 Y112.085 E24.99921
G1 X110 Y113.985 E25.14051
;MESH:NONMESH
G0 F300 X110 Y113.985 Z0.8
G0 F9000 X110 Y113.471
;TIME_ELAPSED:51.332822
;LAYER:3
M106 S255
;TYPE:WALL-INNER
;MESH:RC Post Driver (8).stl
G1 F486.8 X110.159 Y113.422 E25.14733
G1 F510.6 X112.981 Y112.011 E25.27064
G1 F433.2 X113.296 Y111.745 E25.28963
G1 F382.8 X113.301 Y108.667 E25.4501
G1 F463.3 X112.874 Y108.327 E25.47361
G1 F578.3 X110.247 Y107.014 E25.57496
G1 F543 X110 Y106.922 E25.58464
G1 F555.6 X109.708 Y107.024 E25.59575
G1 F601.5 X106.99 Y108.387 E25.69663
G1 F491.8 X106.674 Y108.657 E25.7135
G1 F413.8 X106.679 Y111.758 E25.86305
G1 F467.8 X107.071 Y112.053 E25.88398
G1 F540.5 X109.795 Y113.411 E25.99635
G1 F494.8 X110 Y113.471 E26.00496
G0 F9000 X110.034 Y113.005
;TYPE:WALL-OUTER
G1 F600 X109.917 Y113.004 E26.00885
G1 X107.258 Y111.678 E26.10768
G1 X107.15 Y111.564 E26.1129
G1 X107.148 Y108.819 E26.2042
G1 X107.229 Y108.71 E26.20872
G1 X109.885 Y107.379 E26.30753
G1 X110.011 Y107.351 E26.31182
